X: 20262
Q: "Moderate."
M: C
L: 1/8
K: Bb
f>gfd (ed)(cB) | (AB)(cd) c3d |\
(ed)(cB) A3A | BAGF {F}E3C |\
c |\
cAcA F3f | (fd)fd B3d |\
(eG)cA G2^Fd | (cB)A>G G2zD |\
(GA)BG e3d | (dG)cB {B}A3F |\
(Bd)ce (df)(gf) | (ed)c>B B3 |]


